Origami/48x48/apps/dino.svg

<svg width="48" height="48" version="1" xmlns="http://www.w3.org/2000/svg">
 <path d="m42.421623 44.183s1.958572-3.84373 1.512227-4.604792c-0.392391-0.668996-3.994539-0.505077-3.994539-0.505077s2.47865-3.41267 1.995689-4.236086c-0.475486-0.810657-5.076723-0.84875-5.076723-0.84875s5.074188-2.304903 5.235979-3.232911c0.169781-0.972574-4.485874-4.487204-4.485874-4.487204s4.738695-6.327666 4.374618-7.191037c-0.456994-1.083406-6.983-1.077473-6.983-1.077473s2.446829-8.2670178 1.439149-8.905c-0.84666-0.5358119-10.080633 2.659229-10.080633 2.659229s-2.809869-6.7542292-4.374418-6.7542292c-1.574436 0-4.90057 6.7640082-4.90057 6.7640082s-5.521243-4.1950841-6.543555-3.614008c-0.903807 0.5136455-0.495973 7.566238-0.495973 7.566238z" style="fill-rule:evenodd;opacity:.2"/>
 <path d="m21 9.9999094a17 17 0 0 0 -17 17 17 17 0 0 0 17 17 17 17 0 0 0 8.703125 -2.419922c4.864572 1.600013 12.718705 4.047755 13.322266 3.273438 0.69871-0.896486-4.130445-8.093952-6.34375-11.296875a17 17 0 0 0 1.318359 -6.556641 17 17 0 0 0 -17 -17z" style="opacity:.2"/>
 <path d="m42.421623 43.18333s1.958572-3.84373 1.512227-4.604792c-0.392391-0.668996-3.994539-0.505077-3.994539-0.505077s2.47865-3.41267 1.995689-4.236086c-0.475486-0.810657-5.076723-0.84875-5.076723-0.84875s5.074188-2.304903 5.235979-3.232911c0.169781-0.972574-4.485874-4.487204-4.485874-4.487204s4.738695-6.327666 4.374618-7.191037c-0.456994-1.083406-6.983-1.077473-6.983-1.077473s2.446829-8.2670178 1.439149-8.905c-0.84666-0.5358119-10.080633 2.659229-10.080633 2.659229s-2.809869-6.7542292-4.374418-6.7542292c-1.574436 0-4.90057 6.7640082-4.90057 6.7640082s-5.521243-4.1950841-6.543555-3.614008c-0.903807 0.5136455-0.495973 7.566238-0.495973 7.566238z" style="fill-rule:evenodd;fill:#455a64"/>
 <path d="m21.984375 4c-1.574436 0-4.900391 6.763672-4.900391 6.763672s-5.522609-4.1943575-6.544922-3.6132814c-0.506345 0.2877627-0.5908317 2.5697286-0.5761714 4.5722654 0.0268186-1.691912 0.1578024-3.3345007 0.5761714-3.5722654 1.022313-0.5810761 6.544922 3.6132814 6.544922 3.6132814s3.325955-6.763672 4.900391-6.763672c1.564549 0 4.375 6.753906 4.375 6.753906s9.233418-3.1959679 10.080078-2.660156c0.112957 0.0715153 0.176484 0.2513366 0.210938 0.4921875 0.064828-0.7725424 0.023191-1.3420025-0.210938-1.4902344-0.84666-0.5358119-10.080078 2.6582029-10.080078 2.6582029s-2.810451-6.753906-4.375-6.753906zm13.296875 13.003906c-0.137625 0.493236-0.28125 0.996094-0.28125 0.996094s5.622645-0.00389 6.791016 0.863281c0.153564-0.354837 0.248091-0.650733 0.191406-0.785156-0.425718-1.009258-5.923989-1.070196-6.701172-1.074219zm2.794922 8.626953c-0.199966 0.27244-0.46875 0.636719-0.46875 0.636719s3.314466 2.508306 4.234375 3.871094c0.140801-0.142708 0.232759-0.272716 0.251953-0.382813 0.142422-0.81585-2.965435-3.306743-4.017578-4.125zm0.634766 7.447266c-0.984378 0.501806-1.853516 0.910156-1.853516 0.910156s4.245971 0.037744 4.99414 0.761719c0.135746-0.389781 0.194954-0.722915 0.083985-0.912109-0.274667-0.468281-1.878708-0.6655-3.224609-0.759766zm1.904296 4.982422c-0.362865 0.559372-0.675781 1.011719-0.675781 1.011719s3.458634-0.154835 3.960938 0.470703c0.103834-0.428823 0.137984-0.786182 0.033203-0.964844-0.286068-0.487724-2.259827-0.528983-3.31836-0.517578z" style="fill-rule:evenodd;fill:#ffffff;opacity:.1"/>
 <path d="M 38,26 C 38,35.388841 30.388841,43 21,43 13.736194,43 7.5364304,38.444299 5.1020782,32.034267 4.3899054,30.159004 5,28.125035 5,26 5,16.611159 11.764887,14.918524 21.153728,14.918524 30.542569,14.918524 38,16.611159 38,26 Z" style="fill:#80cbc4"/>
 <path d="m35.537456 30.916376s8.385019 11.787769 7.488544 12.937999c-0.87055 1.116842-17.177092-4.556916-17.177092-4.556916z" style="fill-rule:evenodd;fill:#80cbc4"/>
 <path d="m21 9c-9.388841 0-17 7.611159-17 17 0 0.06397 0.00906 0.125652 0.00977 0.189453-7.996e-4 0.067032-0.00977 0.132001-0.00977 0.199219 0 0.896295 0.072427 1.77619 0.2089844 2.634766 0.043933 0.208533 0.1150432 0.38628 0.1738281 0.578124 0.8288745 2.705037 2.9882813 3.792969 2.9882813 3.792969 0.5238817 0.423206 1.175831 0.854734 1.9277343 1.28125h-0.0625s1.5771349 8.395468 4.4687499 8.324219c2.186972-0.0539 3.903103-4.087408 6.683594-4 2.778078 0.08734 3.905469 3.971128 6.669922 4 1.596529 0.01667 2.982958-2.772092 3.859375-5h0.828125c2.628492 2.446778 8.603784 5.07369 11.192916 5.917969 0.03539-0.01849 0.06423-0.0391 0.08398-0.06445 0.633748-0.813001-3.836355-7.775528-6.312052-11.371097 0.825796-1.998867 1.289062-4.185286 1.289062-6.482422 0-9.388841-7.611159-17-17-17z" style="fill-rule:evenodd;fill:#009688"/>
 <circle cx="13" cy="22" r="2" style="fill-rule:evenodd;opacity:.2"/>
 <circle cx="13" cy="21" r="2" style="fill-rule:evenodd;fill:#ffffff"/>
 <path d="m21 9c-9.388841 0-17 7.611159-17 17 0 0.06397 0.0090556 0.125652 0.0097656 0.189453-7.996e-4 0.067032-0.0097656 0.132001-0.0097656 0.199219 0 0.115652 0.0112779 0.228655 0.0136719 0.34375 0.1445108-9.264099 7.6878171-16.732422 16.986328-16.732422 9.220051 0 16.707718 7.344569 16.974609 16.5 0.004963-0.167567 0.025391-0.331207 0.025391-0.5 0-9.388841-7.611159-17-17-17zm15.943359 23.832031c-0.079288 0.216067-0.144862 0.43845-0.232421 0.650391 2.053987 2.983101 5.439625 8.236346 6.185546 10.419922 0.012639 0.004153 0.030487 0.011555 0.042969 0.015625 0.03539-0.01849 0.064235-0.039103 0.083985-0.064453 0.616341-0.790671-3.571039-7.351778-6.080079-11.021485z" style="fill-rule:evenodd;fill:#ffffff;opacity:.1"/>
</svg>

<svg xmlns="http://www.w3.org/2000/svg" width="48" height="48" version="1">
 <path style="opacity:0.2;fill-rule:evenodd" d="m 42.421623,44.183 c 0,0 1.958572,-3.84373 1.512227,-4.604792 -0.392391,-0.668996 -3.994539,-0.505077 -3.994539,-0.505077 0,0 2.47865,-3.41267 1.995689,-4.236086 -0.475486,-0.810657 -5.076723,-0.84875 -5.076723,-0.84875 0,0 5.074188,-2.304903 5.235979,-3.232911 0.169781,-0.972574 -4.485874,-4.487204 -4.485874,-4.487204 0,0 4.738695,-6.327666 4.374618,-7.191037 C 41.526006,17.993737 35,17.99967 35,17.99967 c 0,0 2.446829,-8.2670178 1.439149,-8.905 -0.84666,-0.5358119 -10.080633,2.659229 -10.080633,2.659229 0,0 -2.809869,-6.7542292 -4.374418,-6.7542292 -1.574436,0 -4.90057,6.7640082 -4.90057,6.7640082 0,0 -5.521243,-4.1950841 -6.543555,-3.614008 C 9.636166,8.6633155 10.044,15.715908 10.044,15.715908 Z"/>
 <path style="opacity:0.2" d="M 21,9.9999094 A 17,17 0 0 0 4,26.999909 a 17,17 0 0 0 17,17 17,17 0 0 0 8.703125,-2.419922 C 34.567697,43.18 42.42183,45.627742 43.025391,44.853425 43.724101,43.956939 38.894946,36.759473 36.681641,33.55655 A 17,17 0 0 0 38,26.999909 17,17 0 0 0 21,9.9999094 Z"/>
 <path style="fill:#455a64;fill-rule:evenodd" d="m 42.421623,43.18333 c 0,0 1.958572,-3.84373 1.512227,-4.604792 -0.392391,-0.668996 -3.994539,-0.505077 -3.994539,-0.505077 0,0 2.47865,-3.41267 1.995689,-4.236086 -0.475486,-0.810657 -5.076723,-0.84875 -5.076723,-0.84875 0,0 5.074188,-2.304903 5.235979,-3.232911 0.169781,-0.972574 -4.485874,-4.487204 -4.485874,-4.487204 0,0 4.738695,-6.327666 4.374618,-7.191037 C 41.526006,16.994067 35,17 35,17 c 0,0 2.446829,-8.2670178 1.439149,-8.905 -0.84666,-0.5358119 -10.080633,2.659229 -10.080633,2.659229 0,0 -2.809869,-6.7542292 -4.374418,-6.7542292 -1.574436,0 -4.90057,6.7640082 -4.90057,6.7640082 0,0 -5.521243,-4.1950841 -6.543555,-3.614008 C 9.636166,7.6636455 10.044,14.716238 10.044,14.716238 Z"/>
 <path style="fill:#ffffff;fill-rule:evenodd;opacity:0.1" d="M 21.984375 4 C 20.409939 4 17.083984 10.763672 17.083984 10.763672 C 17.083984 10.763672 11.561375 6.5693145 10.539062 7.1503906 C 10.032717 7.4381533 9.9482303 9.7201192 9.9628906 11.722656 C 9.9897092 10.030744 10.120693 8.3881553 10.539062 8.1503906 C 11.561375 7.5693145 17.083984 11.763672 17.083984 11.763672 C 17.083984 11.763672 20.409939 5 21.984375 5 C 23.548924 5 26.359375 11.753906 26.359375 11.753906 C 26.359375 11.753906 35.592793 8.5579381 36.439453 9.09375 C 36.55241 9.1652653 36.615937 9.3450866 36.650391 9.5859375 C 36.715219 8.8133951 36.673582 8.243935 36.439453 8.0957031 C 35.592793 7.5598912 26.359375 10.753906 26.359375 10.753906 C 26.359375 10.753906 23.548924 4 21.984375 4 z M 35.28125 17.003906 C 35.143625 17.497142 35 18 35 18 C 35 18 40.622645 17.99611 41.791016 18.863281 C 41.94458 18.508444 42.039107 18.212548 41.982422 18.078125 C 41.556704 17.068867 36.058433 17.007929 35.28125 17.003906 z M 38.076172 25.630859 C 37.876206 25.903299 37.607422 26.267578 37.607422 26.267578 C 37.607422 26.267578 40.921888 28.775884 41.841797 30.138672 C 41.982598 29.995964 42.074556 29.865956 42.09375 29.755859 C 42.236172 28.940009 39.128315 26.449116 38.076172 25.630859 z M 38.710938 33.078125 C 37.72656 33.579931 36.857422 33.988281 36.857422 33.988281 C 36.857422 33.988281 41.103393 34.026025 41.851562 34.75 C 41.987308 34.360219 42.046516 34.027085 41.935547 33.837891 C 41.66088 33.36961 40.056839 33.172391 38.710938 33.078125 z M 40.615234 38.060547 C 40.252369 38.619919 39.939453 39.072266 39.939453 39.072266 C 39.939453 39.072266 43.398087 38.917431 43.900391 39.542969 C 44.004225 39.114146 44.038375 38.756787 43.933594 38.578125 C 43.647526 38.090401 41.673767 38.049142 40.615234 38.060547 z"/>
 <g>
  <path style="fill:#80cbc4" d="M 38,26 C 38,35.388841 30.388841,43 21,43 13.736194,43 7.5364304,38.444299 5.1020782,32.034267 4.3899054,30.159004 5,28.125035 5,26 5,16.611159 11.764887,14.918524 21.153728,14.918524 30.542569,14.918524 38,16.611159 38,26 Z"/>
  <path style="fill:#80cbc4;fill-rule:evenodd" d="m 35.537456,30.916376 c 0,0 8.385019,11.787769 7.488544,12.937999 -0.87055,1.116842 -17.177092,-4.556916 -17.177092,-4.556916 z"/>
 </g>
 <path style="fill:#009688;fill-rule:evenodd" d="M 21,9 C 11.611159,9 4,16.611159 4,26 4,26.06397 4.00906,26.125652 4.00977,26.189453 4.0089704,26.256485 4,26.321454 4,26.388672 c 0,0.896295 0.072427,1.77619 0.2089844,2.634766 0.043933,0.208533 0.1150432,0.38628 0.1738281,0.578124 0.8288745,2.705037 2.9882813,3.792969 2.9882813,3.792969 0.5238817,0.423206 1.175831,0.854734 1.9277343,1.28125 h -0.0625 c 0,0 1.5771349,8.395468 4.4687499,8.324219 2.186972,-0.0539 3.903103,-4.087408 6.683594,-4 2.778078,0.08734 3.905469,3.971128 6.669922,4 1.596529,0.01667 2.982958,-2.772092 3.859375,-5 h 0.828125 c 2.628492,2.446778 8.603784,5.07369 11.192916,5.917969 0.03539,-0.01849 0.06423,-0.0391 0.08398,-0.06445 C 43.656738,43.040518 39.186635,36.077991 36.710938,32.482422 37.536734,30.483555 38,28.297136 38,26 38,16.611159 30.388841,9 21,9 Z"/>
 <circle style="opacity:0.2;fill-rule:evenodd" cx="13" cy="22" r="2"/>
 <circle style="fill:#ffffff;fill-rule:evenodd" cx="13" cy="21" r="2"/>
 <path style="fill:#ffffff;fill-rule:evenodd;opacity:0.1" d="M 21 9 C 11.611159 9 4 16.611159 4 26 C 4 26.06397 4.0090556 26.125652 4.0097656 26.189453 C 4.008966 26.256485 4 26.321454 4 26.388672 C 4 26.504324 4.0112779 26.617327 4.0136719 26.732422 C 4.1581827 17.468323 11.701489 10 21 10 C 30.220051 10 37.707718 17.344569 37.974609 26.5 C 37.979572 26.332433 38 26.168793 38 26 C 38 16.611159 30.388841 9 21 9 z M 36.943359 32.832031 C 36.864071 33.048098 36.798497 33.270481 36.710938 33.482422 C 38.764925 36.465523 42.150563 41.718768 42.896484 43.902344 C 42.909123 43.906497 42.926971 43.913899 42.939453 43.917969 C 42.974843 43.899479 43.003688 43.878866 43.023438 43.853516 C 43.639779 43.062845 39.452399 36.501738 36.943359 32.832031 z"/>
</svg>
